flaticon/user-interface/browser-38.svg

<svg xmlns="http://www.w3.org/2000/svg" width="32" height="32" viewBox="0 0 24 24">
    <path d="M4.398438 2.800781C4.398438 1.917969 3.683594 1.199219 2.800781 1.199219 1.917969 1.199219 1.199219 1.917969 1.199219 2.800781 1.199219 3.683594 1.917969 4.398438 2.800781 4.398438 3.683594 4.398438 4.398438 3.683594 4.398438 2.800781zM2.800781 3.601562C2.359375 3.601562 2 3.242188 2 2.800781 2 2.359375 2.359375 2 2.800781 2 3.242188 2 3.601562 2.359375 3.601562 2.800781 3.601562 3.242188 3.242188 3.601562 2.800781 3.601562zM6.398438 4.398438C7.28125 4.398438 8 3.683594 8 2.800781 8 1.917969 7.28125 1.199219 6.398438 1.199219 5.519531 1.199219 4.800781 1.917969 4.800781 2.800781 4.800781 3.683594 5.519531 4.398438 6.398438 4.398438zM6.398438 2C6.839844 2 7.199219 2.359375 7.199219 2.800781 7.199219 3.242188 6.839844 3.601562 6.398438 3.601562 5.957031 3.601562 5.601562 3.242188 5.601562 2.800781 5.601562 2.359375 5.957031 2 6.398438 2zM10 4.398438C10.882812 4.398438 11.601562 3.683594 11.601562 2.800781 11.601562 1.917969 10.882812 1.199219 10 1.199219 9.117188 1.199219 8.398438 1.917969 8.398438 2.800781 8.398438 3.683594 9.117188 4.398438 10 4.398438zM10 2C10.441406 2 10.800781 2.359375 10.800781 2.800781 10.800781 3.242188 10.441406 3.601562 10 3.601562 9.558594 3.601562 9.199219 3.242188 9.199219 2.800781 9.199219 2.359375 9.558594 2 10 2zM10 2"/>
    <path d="M 0 0 L 0 24 L 24 24 L 24 0 Z M 0.800781 0.800781 L 23.199219 0.800781 L 23.199219 4.800781 L 0.800781 4.800781 Z M 0.800781 23.199219 L 0.800781 5.601562 L 2.800781 5.601562 L 2.800781 23.199219 Z M 23.199219 23.199219 L 3.601562 23.199219 L 3.601562 5.601562 L 23.199219 5.601562 Z M 23.199219 23.199219"/>
    <path d="M2 6.800781L1.601562 6.800781C1.378906 6.800781 1.199219 6.980469 1.199219 7.199219 1.199219 7.421875 1.378906 7.601562 1.601562 7.601562L2 7.601562C2.222656 7.601562 2.398438 7.421875 2.398438 7.199219 2.398438 6.980469 2.222656 6.800781 2 6.800781zM2 8.398438L1.601562 8.398438C1.378906 8.398438 1.199219 8.578125 1.199219 8.800781 1.199219 9.019531 1.378906 9.199219 1.601562 9.199219L2 9.199219C2.222656 9.199219 2.398438 9.019531 2.398438 8.800781 2.398438 8.578125 2.222656 8.398438 2 8.398438zM2 10L1.601562 10C1.378906 10 1.199219 10.179688 1.199219 10.398438 1.199219 10.621094 1.378906 10.800781 1.601562 10.800781L2 10.800781C2.222656 10.800781 2.398438 10.621094 2.398438 10.398438 2.398438 10.179688 2.222656 10 2 10zM2 11.601562L1.601562 11.601562C1.378906 11.601562 1.199219 11.777344 1.199219 12 1.199219 12.222656 1.378906 12.398438 1.601562 12.398438L2 12.398438C2.222656 12.398438 2.398438 12.222656 2.398438 12 2.398438 11.777344 2.222656 11.601562 2 11.601562zM2 13.199219L1.601562 13.199219C1.378906 13.199219 1.199219 13.378906 1.199219 13.601562 1.199219 13.820312 1.378906 14 1.601562 14L2 14C2.222656 14 2.398438 13.820312 2.398438 13.601562 2.398438 13.378906 2.222656 13.199219 2 13.199219zM2 14.800781L1.601562 14.800781C1.378906 14.800781 1.199219 14.980469 1.199219 15.199219 1.199219 15.421875 1.378906 15.601562 1.601562 15.601562L2 15.601562C2.222656 15.601562 2.398438 15.421875 2.398438 15.199219 2.398438 14.980469 2.222656 14.800781 2 14.800781zM2 16.398438L1.601562 16.398438C1.378906 16.398438 1.199219 16.578125 1.199219 16.800781 1.199219 17.019531 1.378906 17.199219 1.601562 17.199219L2 17.199219C2.222656 17.199219 2.398438 17.019531 2.398438 16.800781 2.398438 16.578125 2.222656 16.398438 2 16.398438zM2 18L1.601562 18C1.378906 18 1.199219 18.179688 1.199219 18.398438 1.199219 18.621094 1.378906 18.800781 1.601562 18.800781L2 18.800781C2.222656 18.800781 2.398438 18.621094 2.398438 18.398438 2.398438 18.179688 2.222656 18 2 18zM2 19.601562L1.601562 19.601562C1.378906 19.601562 1.199219 19.777344 1.199219 20 1.199219 20.222656 1.378906 20.398438 1.601562 20.398438L2 20.398438C2.222656 20.398438 2.398438 20.222656 2.398438 20 2.398438 19.777344 2.222656 19.601562 2 19.601562zM2 21.199219L1.601562 21.199219C1.378906 21.199219 1.199219 21.378906 1.199219 21.601562 1.199219 21.820312 1.378906 22 1.601562 22L2 22C2.222656 22 2.398438 21.820312 2.398438 21.601562 2.398438 21.378906 2.222656 21.199219 2 21.199219zM5.199219 7.601562L10.398438 7.601562C10.621094 7.601562 10.800781 7.421875 10.800781 7.199219 10.800781 6.980469 10.621094 6.800781 10.398438 6.800781L5.199219 6.800781C4.980469 6.800781 4.800781 6.980469 4.800781 7.199219 4.800781 7.421875 4.980469 7.601562 5.199219 7.601562zM12 7.601562L16 7.601562C16.222656 7.601562 16.398438 7.421875 16.398438 7.199219 16.398438 6.980469 16.222656 6.800781 16 6.800781L12 6.800781C11.777344 6.800781 11.601562 6.980469 11.601562 7.199219 11.601562 7.421875 11.777344 7.601562 12 7.601562zM17.601562 7.601562L18.398438 7.601562C18.621094 7.601562 18.800781 7.421875 18.800781 7.199219 18.800781 6.980469 18.621094 6.800781 18.398438 6.800781L17.601562 6.800781C17.378906 6.800781 17.199219 6.980469 17.199219 7.199219 17.199219 7.421875 17.378906 7.601562 17.601562 7.601562zM14 8.800781C14 9.019531 14.179688 9.199219 14.398438 9.199219L20.398438 9.199219C20.621094 9.199219 20.800781 9.019531 20.800781 8.800781 20.800781 8.578125 20.621094 8.398438 20.398438 8.398438L14.398438 8.398438C14.179688 8.398438 14 8.578125 14 8.800781zM12.800781 8.398438L7.199219 8.398438C6.980469 8.398438 6.800781 8.578125 6.800781 8.800781 6.800781 9.019531 6.980469 9.199219 7.199219 9.199219L12.800781 9.199219C13.019531 9.199219 13.199219 9.019531 13.199219 8.800781 13.199219 8.578125 13.019531 8.398438 12.800781 8.398438zM5.199219 9.199219L5.601562 9.199219C5.820312 9.199219 6 9.019531 6 8.800781 6 8.578125 5.820312 8.398438 5.601562 8.398438L5.199219 8.398438C4.980469 8.398438 4.800781 8.578125 4.800781 8.800781 4.800781 9.019531 4.980469 9.199219 5.199219 9.199219zM5.199219 10.800781L8.800781 10.800781C9.019531 10.800781 9.199219 10.621094 9.199219 10.398438 9.199219 10.179688 9.019531 10 8.800781 10L5.199219 10C4.980469 10 4.800781 10.179688 4.800781 10.398438 4.800781 10.621094 4.980469 10.800781 5.199219 10.800781zM10.398438 10.800781L11.199219 10.800781C11.421875 10.800781 11.601562 10.621094 11.601562 10.398438 11.601562 10.179688 11.421875 10 11.199219 10L10.398438 10C10.179688 10 10 10.179688 10 10.398438 10 10.621094 10.179688 10.800781 10.398438 10.800781zM18.398438 10L12.800781 10C12.578125 10 12.398438 10.179688 12.398438 10.398438 12.398438 10.621094 12.578125 10.800781 12.800781 10.800781L18.398438 10.800781C18.621094 10.800781 18.800781 10.621094 18.800781 10.398438 18.800781 10.179688 18.621094 10 18.398438 10zM5.199219 12.398438L10.398438 12.398438C10.621094 12.398438 10.800781 12.222656 10.800781 12 10.800781 11.777344 10.621094 11.601562 10.398438 11.601562L5.199219 11.601562C4.980469 11.601562 4.800781 11.777344 4.800781 12 4.800781 12.222656 4.980469 12.398438 5.199219 12.398438zM16.398438 12C16.398438 11.777344 16.222656 11.601562 16 11.601562L12 11.601562C11.777344 11.601562 11.601562 11.777344 11.601562 12 11.601562 12.222656 11.777344 12.398438 12 12.398438L16 12.398438C16.222656 12.398438 16.398438 12.222656 16.398438 12zM14.398438 14L17.601562 14C17.820312 14 18 13.820312 18 13.601562 18 13.378906 17.820312 13.199219 17.601562 13.199219L14.398438 13.199219C14.179688 13.199219 14 13.378906 14 13.601562 14 13.820312 14.179688 14 14.398438 14zM6.800781 13.601562C6.800781 13.820312 6.980469 14 7.199219 14L12.800781 14C13.019531 14 13.199219 13.820312 13.199219 13.601562 13.199219 13.378906 13.019531 13.199219 12.800781 13.199219L7.199219 13.199219C6.980469 13.199219 6.800781 13.378906 6.800781 13.601562zM5.199219 14L5.601562 14C5.820312 14 6 13.820312 6 13.601562 6 13.378906 5.820312 13.199219 5.601562 13.199219L5.199219 13.199219C4.980469 13.199219 4.800781 13.378906 4.800781 13.601562 4.800781 13.820312 4.980469 14 5.199219 14zM5.199219 15.601562L8.800781 15.601562C9.019531 15.601562 9.199219 15.421875 9.199219 15.199219 9.199219 14.980469 9.019531 14.800781 8.800781 14.800781L5.199219 14.800781C4.980469 14.800781 4.800781 14.980469 4.800781 15.199219 4.800781 15.421875 4.980469 15.601562 5.199219 15.601562zM10.398438 15.601562L11.199219 15.601562C11.421875 15.601562 11.601562 15.421875 11.601562 15.199219 11.601562 14.980469 11.421875 14.800781 11.199219 14.800781L10.398438 14.800781C10.179688 14.800781 10 14.980469 10 15.199219 10 15.421875 10.179688 15.601562 10.398438 15.601562zM12.398438 15.199219C12.398438 15.421875 12.578125 15.601562 12.800781 15.601562L18.800781 15.601562C19.019531 15.601562 19.199219 15.421875 19.199219 15.199219 19.199219 14.980469 19.019531 14.800781 18.800781 14.800781L12.800781 14.800781C12.578125 14.800781 12.398438 14.980469 12.398438 15.199219zM5.199219 17.199219L10.398438 17.199219C10.621094 17.199219 10.800781 17.019531 10.800781 16.800781 10.800781 16.578125 10.621094 16.398438 10.398438 16.398438L5.199219 16.398438C4.980469 16.398438 4.800781 16.578125 4.800781 16.800781 4.800781 17.019531 4.980469 17.199219 5.199219 17.199219zM16 16.398438L12 16.398438C11.777344 16.398438 11.601562 16.578125 11.601562 16.800781 11.601562 17.019531 11.777344 17.199219 12 17.199219L16 17.199219C16.222656 17.199219 16.398438 17.019531 16.398438 16.800781 16.398438 16.578125 16.222656 16.398438 16 16.398438zM20.398438 16.398438L17.601562 16.398438C17.378906 16.398438 17.199219 16.578125 17.199219 16.800781 17.199219 17.019531 17.378906 17.199219 17.601562 17.199219L20.398438 17.199219C20.621094 17.199219 20.800781 17.019531 20.800781 16.800781 20.800781 16.578125 20.621094 16.398438 20.398438 16.398438zM16 18L14.398438 18C14.179688 18 14 18.179688 14 18.398438 14 18.621094 14.179688 18.800781 14.398438 18.800781L16 18.800781C16.222656 18.800781 16.398438 18.621094 16.398438 18.398438 16.398438 18.179688 16.222656 18 16 18zM6.800781 18.398438C6.800781 18.621094 6.980469 18.800781 7.199219 18.800781L12.800781 18.800781C13.019531 18.800781 13.199219 18.621094 13.199219 18.398438 13.199219 18.179688 13.019531 18 12.800781 18L7.199219 18C6.980469 18 6.800781 18.179688 6.800781 18.398438zM5.199219 18.800781L5.601562 18.800781C5.820312 18.800781 6 18.621094 6 18.398438 6 18.179688 5.820312 18 5.601562 18L5.199219 18C4.980469 18 4.800781 18.179688 4.800781 18.398438 4.800781 18.621094 4.980469 18.800781 5.199219 18.800781zM8.800781 19.601562L5.199219 19.601562C4.980469 19.601562 4.800781 19.777344 4.800781 20 4.800781 20.222656 4.980469 20.398438 5.199219 20.398438L8.800781 20.398438C9.019531 20.398438 9.199219 20.222656 9.199219 20 9.199219 19.777344 9.019531 19.601562 8.800781 19.601562zM11.199219 19.601562L10.398438 19.601562C10.179688 19.601562 10 19.777344 10 20 10 20.222656 10.179688 20.398438 10.398438 20.398438L11.199219 20.398438C11.421875 20.398438 11.601562 20.222656 11.601562 20 11.601562 19.777344 11.421875 19.601562 11.199219 19.601562zM15.601562 19.601562L12.800781 19.601562C12.578125 19.601562 12.398438 19.777344 12.398438 20 12.398438 20.222656 12.578125 20.398438 12.800781 20.398438L15.601562 20.398438C15.820312 20.398438 16 20.222656 16 20 16 19.777344 15.820312 19.601562 15.601562 19.601562zM17.601562 19.601562L17.199219 19.601562C16.980469 19.601562 16.800781 19.777344 16.800781 20 16.800781 20.222656 16.980469 20.398438 17.199219 20.398438L17.601562 20.398438C17.820312 20.398438 18 20.222656 18 20 18 19.777344 17.820312 19.601562 17.601562 19.601562zM17.601562 19.601562"/>
</svg>

<svg xmlns="http://www.w3.org/2000/svg" width="32" height="32" viewBox="0 0 24 24">
    <path d="M4.398 2.8a1.6 1.6 0 0 0-1.597-1.6c-.883 0-1.602.718-1.602 1.6a1.6 1.6 0 0 0 3.2 0zm-1.597.802A.802.802 0 0 1 2.8 2a.802.802 0 0 1 0 1.602zm0 0M6.398 4.398A1.6 1.6 0 0 0 8 2.801c0-.883-.719-1.602-1.602-1.602a1.6 1.6 0 1 0 0 3.2zm0-2.398a.802.802 0 0 1 0 1.602.799.799 0 0 1-.796-.801c0-.442.355-.801.796-.801zm0 0M10 4.398a1.6 1.6 0 0 0 1.602-1.597c0-.883-.72-1.602-1.602-1.602a1.6 1.6 0 0 0 0 3.2zM10 2a.802.802 0 0 1 0 1.602A.802.802 0 0 1 10 2zm0 0"/>
    <path d="M0 0v24h24V0zm.8.8h22.4v4H.8zm0 22.4V5.601h2v17.597zm22.4 0H3.601V5.601h19.597zm0 0"/>
    <path d="M2 6.8h-.398a.401.401 0 1 0 0 .802H2c.223 0 .398-.18.398-.403A.398.398 0 0 0 2 6.801zm0 0M2 8.398h-.398a.401.401 0 0 0 0 .8L2 9.2c.223 0 .398-.18.398-.398A.398.398 0 0 0 2 8.398zm0 0M2 10h-.398a.401.401 0 1 0 0 .8H2c.223 0 .398-.179.398-.402A.398.398 0 0 0 2 10zm0 0M2 11.602h-.398a.398.398 0 1 0 0 .796H2A.395.395 0 0 0 2.398 12 .395.395 0 0 0 2 11.602zm0 0M2 13.2h-.398a.401.401 0 0 0 0 .8H2c.223 0 .398-.18.398-.398A.398.398 0 0 0 2 13.199zm0 0M2 14.8h-.398a.401.401 0 1 0 0 .802H2c.223 0 .398-.18.398-.403A.398.398 0 0 0 2 14.801zm0 0M2 16.398h-.398a.401.401 0 0 0 0 .8L2 17.2c.223 0 .398-.18.398-.398A.398.398 0 0 0 2 16.398zm0 0M2 18h-.398a.401.401 0 1 0 0 .8H2c.223 0 .398-.179.398-.402A.398.398 0 0 0 2 18zm0 0M2 19.602h-.398a.398.398 0 1 0 0 .796H2A.395.395 0 0 0 2.398 20 .395.395 0 0 0 2 19.602zm0 0M2 21.2h-.398a.401.401 0 0 0 0 .8H2c.223 0 .398-.18.398-.398A.398.398 0 0 0 2 21.199zm0 0M5.2 7.602h5.198a.401.401 0 0 0 0-.8L5.2 6.8a.4.4 0 0 0 0 .8zm0 0M12 7.602h4c.223 0 .398-.18.398-.403A.398.398 0 0 0 16 6.801h-4a.398.398 0 0 0-.398.398c0 .223.175.403.398.403zm0 0M17.602 7.602h.796a.401.401 0 0 0 0-.8l-.796-.001a.401.401 0 1 0 0 .8zm0 0M14 8.8a.4.4 0 0 0 .398.4h6a.401.401 0 1 0 0-.802h-6a.401.401 0 0 0-.398.403zm0 0M12.8 8.398H7.2a.401.401 0 0 0 0 .801h5.6a.4.4 0 0 0 0-.8zm0 0M5.2 9.2h.402a.4.4 0 0 0 0-.802h-.403a.401.401 0 0 0 0 .801zm0 0M5.2 10.8h3.6a.401.401 0 0 0 0-.8H5.2a.4.4 0 0 0 0 .8zm0 0M10.398 10.8h.801a.401.401 0 0 0 0-.8h-.8a.4.4 0 0 0 0 .8zm0 0M18.398 10h-5.597a.401.401 0 1 0 0 .8h5.597a.401.401 0 0 0 0-.8zm0 0M5.2 12.398h5.198a.398.398 0 1 0 0-.796H5.2a.398.398 0 1 0 0 .796zm0 0M16.398 12a.395.395 0 0 0-.398-.398h-4a.395.395 0 0 0-.398.398c0 .223.175.398.398.398h4a.395.395 0 0 0 .398-.398zm0 0M14.398 14h3.204a.4.4 0 0 0 0-.8h-3.204a.401.401 0 0 0 0 .8zm0 0M6.8 13.602a.4.4 0 0 0 .4.398h5.6a.4.4 0 0 0 0-.8H7.2a.401.401 0 0 0-.4.402zm0 0M5.2 14h.402a.4.4 0 0 0 0-.8h-.403a.401.401 0 0 0 0 .8zm0 0M5.2 15.602h3.6a.401.401 0 0 0 0-.801H5.2a.4.4 0 0 0 0 .8zm0 0M10.398 15.602h.801a.401.401 0 0 0 0-.8l-.8-.001a.4.4 0 0 0 0 .8zm0 0M12.398 15.2c0 .222.18.402.403.402h6a.401.401 0 0 0 0-.801h-6a.401.401 0 0 0-.403.398zm0 0M5.2 17.2h5.198a.401.401 0 1 0 0-.802H5.2a.401.401 0 0 0 0 .801zm0 0M16 16.398h-4a.398.398 0 0 0-.398.403c0 .219.175.398.398.398h4c.223 0 .398-.18.398-.398a.398.398 0 0 0-.398-.403zm0 0M20.398 16.398h-2.796a.401.401 0 0 0 0 .8l2.796.001a.401.401 0 1 0 0-.8zm0 0M16 18h-1.602a.4.4 0 0 0 0 .8H16c.223 0 .398-.179.398-.402A.398.398 0 0 0 16 18zm0 0M6.8 18.398c0 .223.18.403.4.403h5.6a.401.401 0 0 0 0-.801H7.2a.4.4 0 0 0-.4.398zm0 0M5.2 18.8h.402a.401.401 0 0 0 0-.8h-.403a.4.4 0 0 0 0 .8zm0 0M8.8 19.602H5.2a.398.398 0 1 0 0 .796h3.6a.398.398 0 1 0 0-.796zm0 0M11.2 19.602h-.802a.398.398 0 1 0 0 .796h.801a.398.398 0 1 0 0-.796zm0 0M15.602 19.602H12.8a.398.398 0 1 0 0 .796h2.8a.398.398 0 1 0 0-.796zm0 0M17.602 19.602h-.403a.398.398 0 1 0 0 .796h.403a.398.398 0 1 0 0-.796zm0 0"/>
</svg>
